X:17
T:Hey Jennie..(?) JMP.017
M:6/8
L:1/8
Q:3/8=110
C:"Quick March"
S:John Miller MS. Perth, 1799.(for the fife)
R:.March
O:Scotland
A:Perth
N:In pencil? in a more modern handwriting? by the title - Hey Jenny ....
N:...... Jock
N:1 - bar unclear
H:1799
Z:vmp.C. Graebe
K:G Major
G2 G GBd | ecB A2B | G2 G dBG | edf E2 :|!
|:e/f/ | gfd agf | gfe def | gfe agf | gfg e2 g |!
gfe agf | gfe efg | G2 G dBG |"1" ede E2 |]

